X:1
T:Title
%%score { ( 1 3 ) | ( 2 4 ) }
L:1/8
M:3/4
K:A
V:1 treble nm="Grand Piano"
V:3 treble 
V:2 bass 
V:4 bass 
V:1
 z2 z2[Q:1/4=86] [A,CF][A,F] | [B,FG]2 [DGB]2 [CFA][B,^EG] | z2 C2 FG | A2 F2 [DFB][B,F] | %4
[M:2/4] F2 ^E2 |[M:1/4] FF |[M:3/4] G2 G2 AA | [Ac]2 B4 | [CFA][A,CF] [G,B,F]2 [B,C^E]2 | %9
[M:6/4] .[A,CF]6 z6 |[M:8/4] [B,DF]8 [CFA]8 |] %11
V:2
 z2 z2 F,F, | D,2 B,,2 C,C, | F,4 [D,A,=C][D,G,C] | [C,F,C]2 [C,A,C]2 B,,D, |[M:2/4] C,4 | %5
[M:1/4] [F,A,][F,A,C] |[M:3/4] [F,B,D]2 [^E,B,D]2 [F,A,C][F,CF] | z2 G4 | C,C, C,2 C,2 | %9
[M:6/4] .F,,6 z6 |[M:8/4] B,,8 F,,8 |] %11
V:3
 x6 | x6 | [A,F]4 z2 | x6 |[M:2/4] [B,G]4 |[M:1/4] x2 |[M:3/4] x6 | D6 | x6 |[M:6/4] x12 | %10
[M:8/4] x16 |] %11
V:4
 x6 | x6 | x6 | x6 |[M:2/4] x4 |[M:1/4] x2 |[M:3/4] x6 | B,,6 | x6 |[M:6/4] x12 |[M:8/4] x16 |] %11

